src/img/icons/linkedin.svg

<svg width="24" height="24" viewBox="0 0 24 24" fill="none" xmlns="http://www.w3.org/2000/svg">
    <path d="M24 2.26471V22.7353C24 23.2033 23.8141 23.6522 23.4831 23.9831C23.1522 24.3141 22.7033 24.5 22.2353 24.5H1.76471C1.29668 24.5 0.847817 24.3141 0.51687 23.9831C0.185924 23.6522 0 23.2033 0 22.7353L0 2.26471C0 1.79668 0.185924 1.34782 0.51687 1.01687C0.847817 0.685924 1.29668 0.5 1.76471 0.5L22.2353 0.5C22.7033 0.5 23.1522 0.685924 23.4831 1.01687C23.8141 1.34782 24 1.79668 24 2.26471V2.26471ZM7.05882 9.67647H3.52941V20.9706H7.05882V9.67647ZM7.37647 5.79412C7.37833 5.52715 7.32759 5.26242 7.22714 5.01506C7.12669 4.7677 6.9785 4.54255 6.79103 4.35246C6.60357 4.16237 6.38049 4.01107 6.13455 3.9072C5.88861 3.80332 5.62462 3.74891 5.35765 3.74706H5.29412C4.7512 3.74706 4.23053 3.96273 3.84663 4.34663C3.46273 4.73053 3.24706 5.2512 3.24706 5.79412C3.24706 6.33703 3.46273 6.85771 3.84663 7.24161C4.23053 7.6255 4.7512 7.84118 5.29412 7.84118V7.84118C5.56111 7.84774 5.82678 7.80164 6.07594 7.7055C6.32511 7.60936 6.55289 7.46506 6.74627 7.28086C6.93965 7.09666 7.09484 6.87616 7.20297 6.63196C7.3111 6.38776 7.37006 6.12464 7.37647 5.85765V5.79412ZM20.4706 14.1094C20.4706 10.7141 18.3106 9.39412 16.1647 9.39412C15.4621 9.35894 14.7625 9.50859 14.1358 9.82814C13.5091 10.1477 12.9771 10.626 12.5929 11.2153H12.4941V9.67647H9.17647V20.9706H12.7059V14.9635C12.6549 14.3483 12.8487 13.7378 13.2452 13.2646C13.6417 12.7915 14.2089 12.4939 14.8235 12.4365H14.9576C16.08 12.4365 16.9129 13.1424 16.9129 14.9212V20.9706H20.4424L20.4706 14.1094Z"
     fill="currentColor" />
</svg>

<svg xmlns="http://www.w3.org/2000/svg" width="24" height="25" fill="none" viewBox="0 0 24 24"><path fill="currentColor" d="M24 2.265v20.47a1.764 1.764 0 0 1-1.765 1.765H1.765A1.765 1.765 0 0 1 0 22.735V2.265A1.765 1.765 0 0 1 1.765.5h20.47A1.765 1.765 0 0 1 24 2.265ZM7.059 9.676h-3.53v11.295h3.53V9.676Zm.317-3.882a2.033 2.033 0 0 0-2.018-2.047h-.064a2.047 2.047 0 1 0 0 4.094 2.033 2.033 0 0 0 2.082-1.983v-.064Zm13.095 8.315c0-3.395-2.16-4.715-4.306-4.715a4.024 4.024 0 0 0-3.572 1.821h-.099V9.676H9.176v11.295h3.53v-6.008a2.344 2.344 0 0 1 2.117-2.526h.135c1.122 0 1.955.705 1.955 2.484v6.05h3.53l.028-6.862Z"/></svg>
